X: 40237
T: Tipperty's Jean
R: jig
M: 6/8
K: Dmajor
|:FAA ABc|dAA A3|BBB Bcd|e3 e2A|
f3 efe|dAA Adc|Bed cBc|1 d3 d3:|2 d3 d2A||
|:dfa afd|egb bge|dfa dcd|
[1e3 e2A|dfa afd|egb bge|fed cBc|d3 d2A:|
[2edc BAG|F/G/A2 ABc|dAA Aag|fed cBc|d3 d3||
FBB Bcd|cFF F3|FBB Bcd|c3 c2A|
f3 efe|dAA Adc|Bed cBc|d3 d3|
FBB Bcd|cFF F3|ddd def|edc BAG|
F/G/A2 ABc|dAA Aag|fed cBc|d3 d3||

